src/fileIcons/FileIconTiff/FileIconTiff_size_m.svg

<svg viewBox="0 0 30 40" xmlns="http://www.w3.org/2000/svg">
  <path
    d="M28 0H2C0.89543 0 0 0.89543 0 2V38C0 39.1046 0.89543 40 2 40H28C29.1046 40 30 39.1046 30 38V2C30 0.89543 29.1046 0 28 0Z"
  />
  <path
    opacity="0.6"
    fill-rule="evenodd"
    clip-rule="evenodd"
    d="M8.5 18L8 18V18.5V27.6667L10 25L15 30L19 27L22 29.25C22 29.25 22 18.6417 22 18.5C22 18.3583 22 18 22 18C22 18 21.6344 18 21.5 18C21.3656 18 8.5 18 8.5 18ZM8 31.5V29.3333L10.1082 26.5224L14.9062 31.3204L19 28.25L22 30.5V31.5C22 31.6406 22 32 22 32C22 32 21.6356 32 21.5 32H8.5C8.347 32 8 32 8 32C8 32 8 31.6231 8 31.5ZM7 18.5V29V31.5V32C7 32.2768 7.00001 33 7.00001 33C7.00001 33 7.72447 33 8 33H8.5H21.5H22C22.2822 33 23 33 23 33C23 33 23 32.2701 23 32V31.5V30C23 30 23 18.9254 23 18.5C23 18.0746 23 17 23 17C23 17 21.903 17 21.5 17C21.097 17 8.5 17 8.5 17C8 17 7 17 7 17C7 17 7 18 7 18.5ZM16 22.5C16 21.6716 16.6716 21 17.5 21C18.3284 21 19 21.6716 19 22.5C19 23.3284 18.3284 24 17.5 24C16.6716 24 16 23.3284 16 22.5ZM17.5 20C16.1193 20 15 21.1193 15 22.5C15 23.8807 16.1193 25 17.5 25C18.8807 25 20 23.8807 20 22.5C20 21.1193 18.8807 20 17.5 20Z"
    fill="#fff"
  />
  <path d="M13 6V5H12V6H13Z" fill="#fff" />
  <path d="M11 7V8H12V11H11V12H14V11H13V7H11Z" fill="#fff" />
  <path
    d="M17.09 6.09C17.1567 6.03 17.2433 6 17.35 6L18.5 6V5H17.04C16.7333 5 16.4833 5.1 16.29 5.3C16.0967 5.49333 16 5.76 16 6.1V7H15V8H16V11H15V12H18V11H17V8H18V7H17V6.3C17 6.21333 17.03 6.14333 17.09 6.09Z"
    fill="#fff"
  />
  <path
    d="M21.09 6.09C21.1567 6.03 21.2433 6 21.35 6L22.5 6V5H21.04C20.7333 5 20.4833 5.1 20.29 5.3C20.0967 5.49333 20 5.76 20 6.1V7H19V8H20V11H19V12H22V11H21V8H22V7H21V6.3C21 6.21333 21.03 6.14333 21.09 6.09Z"
    fill="#fff"
  />
  <path
    d="M9.05 11.9996C8.71 11.9996 8.45 11.8896 8.27 11.6696C8.09 11.4496 8 11.1596 8 10.7996V7.9998H7V6.99961H8V6H9V6.99961H10V7.9998H9V10.6C9 10.7467 9.03667 10.85 9.11 10.91C9.18333 10.97 9.29667 11 9.45 11L10 11.0004V12L9.05 11.9996Z"
    fill="#fff"
  />
</svg>

<svg viewBox="0 0 30 40" xmlns="http://www.w3.org/2000/svg">
  <path d="M28 0H2a2 2 0 00-2 2v36a2 2 0 002 2h26a2 2 0 002-2V2a2 2 0 00-2-2z" />
  <path
    fill="#fff"
    fill-rule="evenodd"
    d="M8.5 18a.5.5 0 00-.5.5v9.167L10 25l5 5 4-3 3 2.25V18.5a.5.5 0 00-.5-.5h-13zM8 31.5v-2.167l2.108-2.81 4.798 4.797L19 28.25l3 2.25v1a.5.5 0 01-.5.5h-13a.5.5 0 01-.5-.5zm-1-13V32a1 1 0 001 1h14a1 1 0 001-1V18.5a1.5 1.5 0 00-1.5-1.5h-13A1.5 1.5 0 007 18.5zm9 4a1.5 1.5 0 113 0 1.5 1.5 0 01-3 0zm1.5-2.5a2.5 2.5 0 100 5 2.5 2.5 0 000-5z"
    clip-rule="evenodd"
    opacity=".6"
  />
  <path
    fill="#fff"
    d="M13 6V5h-1v1h1zM11 7v1h1v3h-1v1h3v-1h-1V7h-2zM17.09 6.09a.374.374 0 01.26-.09h1.15V5h-1.46c-.307 0-.557.1-.75.3-.193.193-.29.46-.29.8V7h-1v1h1v3h-1v1h3v-1h-1V8h1V7h-1v-.7c0-.087.03-.157.09-.21zM21.09 6.09a.374.374 0 01.26-.09h1.15V5h-1.46c-.307 0-.557.1-.75.3-.193.193-.29.46-.29.8V7h-1v1h1v3h-1v1h3v-1h-1V8h1V7h-1v-.7c0-.087.03-.157.09-.21zM9.05 12c-.34 0-.6-.11-.78-.33-.18-.22-.27-.51-.27-.87V8H7V7h1V6h1v1h1v1H9v2.6c0 .147.037.25.11.31.073.06.187.09.34.09H10v1h-.95z"
  />
</svg>
